img/promo/freebet_mobile.svg

<?xml version="1.0" encoding="UTF-8"?>
<svg width="44px" height="17px" viewBox="0 0 44 17" version="1.1" xmlns="http://www.w3.org/2000/svg" xmlns:xlink="http://www.w3.org/1999/xlink">
    <!-- Generator: Sketch 52.4 (67378) - http://www.bohemiancoding.com/sketch -->
    <title>Group 8</title>
    <desc>Created with Sketch.</desc>
    <g id="меню-" stroke="none" stroke-width="1" fill="none" fill-rule="evenodd">
        <g id="спа-зен-copy-4" transform="translate(-201.000000, -551.000000)">
            <g id="Group-7" transform="translate(201.000000, 551.000000)">
                <g id="Group-8">
                    <rect id="Rectangle" stroke="#D0021B" fill="#D0021B" x="0.5" y="0.5" width="43" height="16" rx="2"></rect>
                    <path d="M5.0674245,7.60546875 L5.0674245,6.75292969 C5.46293429,6.73535147 5.73978699,6.70898455 5.8979909,6.67382812 C6.14994529,6.61816378 6.35502136,6.50683677 6.51322528,6.33984375 C6.62162426,6.22558537 6.70365469,6.07324314 6.75931903,5.8828125 C6.79154575,5.76855412 6.80765887,5.68359403 6.80765887,5.62792969 L7.84916278,5.62792969 L7.84916278,12 L6.56595965,12 L6.56595965,7.60546875 L5.0674245,7.60546875 Z M11.0088307,8.87548828 C11.0088307,9.60791382 11.0688887,10.1682109 11.1890065,10.5563965 C11.3091243,10.944582 11.5552156,11.1386719 11.9272878,11.1386719 C12.2993599,11.1386719 12.543254,10.944582 12.6589772,10.5563965 C12.7747005,10.1682109 12.8325612,9.60791382 12.8325612,8.87548828 C12.8325612,8.10790632 12.7747005,7.53955263 12.6589772,7.17041016 C12.543254,6.80126769 12.2993599,6.61669922 11.9272878,6.61669922 C11.5552156,6.61669922 11.3091243,6.80126769 11.1890065,7.17041016 C11.0688887,7.53955263 11.0088307,8.10790632 11.0088307,8.87548828 Z M11.9272878,5.58398438 C12.7388153,5.58398438 13.3079014,5.86962605 13.6345632,6.44091797 C13.961225,7.01220989 14.1245534,7.82372521 14.1245534,8.87548828 C14.1245534,9.92725135 13.961225,10.7373018 13.6345632,11.3056641 C13.3079014,11.8740263 12.7388153,12.1582031 11.9272878,12.1582031 C11.1157603,12.1582031 10.5466742,11.8740263 10.2200124,11.3056641 C9.8933506,10.7373018 9.73002215,9.92725135 9.73002215,8.87548828 C9.73002215,7.82372521 9.8933506,7.01220989 10.2200124,6.44091797 C10.5466742,5.86962605 11.1157603,5.58398438 11.9272878,5.58398438 Z M18.5146901,8.87548828 C18.5146901,9.60791382 18.5747481,10.1682109 18.6948659,10.5563965 C18.8149837,10.944582 19.061075,11.1386719 19.4331472,11.1386719 C19.8052193,11.1386719 20.0491134,10.944582 20.1648366,10.5563965 C20.2805598,10.1682109 20.3384206,9.60791382 20.3384206,8.87548828 C20.3384206,8.10790632 20.2805598,7.53955263 20.1648366,7.17041016 C20.0491134,6.80126769 19.8052193,6.61669922 19.4331472,6.61669922 C19.061075,6.61669922 18.8149837,6.80126769 18.6948659,7.17041016 C18.5747481,7.53955263 18.5146901,8.10790632 18.5146901,8.87548828 Z M19.4331472,5.58398438 C20.2446746,5.58398438 20.8137608,5.86962605 21.1404225,6.44091797 C21.4670843,7.01220989 21.6304128,7.82372521 21.6304128,8.87548828 C21.6304128,9.92725135 21.4670843,10.7373018 21.1404225,11.3056641 C20.8137608,11.8740263 20.2446746,12.1582031 19.4331472,12.1582031 C18.6216197,12.1582031 18.0525336,11.8740263 17.7258718,11.3056641 C17.39921,10.7373018 17.2358815,9.92725135 17.2358815,8.87548828 C17.2358815,7.82372521 17.39921,7.01220989 17.7258718,6.44091797 C18.0525336,5.86962605 18.6216197,5.58398438 19.4331472,5.58398438 Z M23.5200612,8.87548828 C23.5200612,9.60791382 23.5801192,10.1682109 23.700237,10.5563965 C23.8203548,10.944582 24.0664461,11.1386719 24.4385182,11.1386719 C24.8105904,11.1386719 25.0544845,10.944582 25.1702077,10.5563965 C25.2859309,10.1682109 25.3437917,9.60791382 25.3437917,8.87548828 C25.3437917,8.10790632 25.2859309,7.53955263 25.1702077,7.17041016 C25.0544845,6.80126769 24.8105904,6.61669922 24.4385182,6.61669922 C24.0664461,6.61669922 23.8203548,6.80126769 23.700237,7.17041016 C23.5801192,7.53955263 23.5200612,8.10790632 23.5200612,8.87548828 Z M24.4385182,5.58398438 C25.2500457,5.58398438 25.8191318,5.86962605 26.1457936,6.44091797 C26.4724554,7.01220989 26.6357839,7.82372521 26.6357839,8.87548828 C26.6357839,9.92725135 26.4724554,10.7373018 26.1457936,11.3056641 C25.8191318,11.8740263 25.2500457,12.1582031 24.4385182,12.1582031 C23.6269907,12.1582031 23.0579046,11.8740263 22.7312429,11.3056641 C22.4045811,10.7373018 22.2412526,9.92725135 22.2412526,8.87548828 C22.2412526,7.82372521 22.4045811,7.01220989 22.7312429,6.44091797 C23.0579046,5.86962605 23.6269907,5.58398438 24.4385182,5.58398438 Z M28.5254323,8.87548828 C28.5254323,9.60791382 28.5854903,10.1682109 28.7056081,10.5563965 C28.8257259,10.944582 29.0718172,11.1386719 29.4438893,11.1386719 C29.8159615,11.1386719 30.0598556,10.944582 30.1755788,10.5563965 C30.291302,10.1682109 30.3491628,9.60791382 30.3491628,8.87548828 C30.3491628,8.10790632 30.291302,7.53955263 30.1755788,7.17041016 C30.0598556,6.80126769 29.8159615,6.61669922 29.4438893,6.61669922 C29.0718172,6.61669922 28.8257259,6.80126769 28.7056081,7.17041016 C28.5854903,7.53955263 28.5254323,8.10790632 28.5254323,8.87548828 Z M29.4438893,5.58398438 C30.2554168,5.58398438 30.8245029,5.86962605 31.1511647,6.44091797 C31.4778265,7.01220989 31.641155,7.82372521 31.641155,8.87548828 C31.641155,9.92725135 31.4778265,10.7373018 31.1511647,11.3056641 C30.8245029,11.8740263 30.2554168,12.1582031 29.4438893,12.1582031 C28.6323618,12.1582031 28.0632757,11.8740263 27.7366139,11.3056641 C27.4099522,10.7373018 27.2466237,9.92725135 27.2466237,8.87548828 C27.2466237,7.82372521 27.4099522,7.01220989 27.7366139,6.44091797 C28.0632757,5.86962605 28.6323618,5.58398438 29.4438893,5.58398438 Z M34.6815989,8.63414634 L35.4407453,8.63414634 L35.4407453,5.59756098 L37.1419648,5.59756098 C37.5505034,5.59756098 37.8980609,5.65396285 38.1846477,5.76676829 C38.4712345,5.87957373 38.7044639,6.02896248 38.8843428,6.21493902 C39.0642218,6.40091556 39.195318,6.61737681 39.2776355,6.86432927 C39.359953,7.11128172 39.4011111,7.36585235 39.4011111,7.62804878 C39.4011111,7.8963428 39.359953,8.14938905 39.2776355,8.38719512 C39.195318,8.62500119 39.0642218,8.83536494 38.8843428,9.01829268 C38.7044639,9.20122043 38.4712345,9.34603605 38.1846477,9.4527439 C37.8980609,9.55945175 37.5505034,9.61280488 37.1419648,9.61280488 L36.6297697,9.61280488 L36.6297697,10.3079268 L38.2395258,10.3079268 L38.2395258,11.25 L36.6297697,11.25 L36.6297697,12 L35.4407453,12 L35.4407453,11.25 L34.6815989,11.25 L34.6815989,10.3079268 L35.4407453,10.3079268 L35.4407453,9.61280488 L34.6815989,9.61280488 L34.6815989,8.63414634 Z M37.0230624,8.63414634 C37.1876973,8.63414634 37.3416592,8.62042697 37.4849526,8.5929878 C37.628246,8.56554864 37.7547691,8.51524427 37.8645258,8.44207317 C37.9742824,8.36890207 38.0596474,8.26676895 38.1206233,8.13567073 C38.1815992,8.00457252 38.2120867,7.83536689 38.2120867,7.62804878 C38.2120867,7.42073067 38.1815992,7.24695192 38.1206233,7.10670732 C38.0596474,6.96646271 37.9742824,6.85518334 37.8645258,6.77286585 C37.7547691,6.69054837 37.628246,6.63262212 37.4849526,6.59908537 C37.3416592,6.56554861 37.1876973,6.54878049 37.0230624,6.54878049 L36.6297697,6.54878049 L36.6297697,8.63414634 L37.0230624,8.63414634 Z" id="10-000-₽" fill="#FFFFFF"></path>
                </g>
            </g>
        </g>
    </g>
</svg>

<svg width="44" height="17" viewBox="0 0 44 17" xmlns="http://www.w3.org/2000/svg"><title>Group 8</title><g fill="none" fill-rule="evenodd"><rect stroke="#D0021B" fill="#D0021B" x=".5" y=".5" width="43" height="16" rx="2"/><path d="M5.067 7.605v-.852c.396-.018.673-.044.831-.08.252-.055.457-.166.615-.333a1.1 1.1 0 0 0 .246-.457c.033-.114.049-.2.049-.255h1.041V12H6.566V7.605H5.067zm5.942 1.27c0 .733.06 1.293.18 1.681.12.389.366.583.738.583s.616-.194.732-.583c.116-.388.174-.948.174-1.68 0-.768-.058-1.336-.174-1.706-.116-.369-.36-.553-.732-.553s-.618.184-.738.553c-.12.37-.18.938-.18 1.705zm.918-3.291c.812 0 1.38.286 1.708.857.326.571.49 1.383.49 2.434 0 1.052-.164 1.862-.49 2.43-.327.569-.896.853-1.708.853-.811 0-1.38-.284-1.707-.852-.327-.569-.49-1.379-.49-2.43 0-1.052.163-1.864.49-2.435.327-.571.896-.857 1.707-.857zm6.588 3.291c0 .733.06 1.293.18 1.681.12.389.366.583.738.583s.616-.194.732-.583c.116-.388.173-.948.173-1.68 0-.768-.057-1.336-.173-1.706-.116-.369-.36-.553-.732-.553s-.618.184-.738.553c-.12.37-.18.938-.18 1.705zm.918-3.291c.812 0 1.38.286 1.707.857.327.571.49 1.383.49 2.434 0 1.052-.163 1.862-.49 2.43-.326.569-.895.853-1.707.853-.811 0-1.38-.284-1.707-.852-.327-.569-.49-1.379-.49-2.43 0-1.052.163-1.864.49-2.435.327-.571.896-.857 1.707-.857zm4.087 3.291c0 .733.06 1.293.18 1.681.12.389.366.583.739.583.372 0 .615-.194.731-.583.116-.388.174-.948.174-1.68 0-.768-.058-1.336-.174-1.706-.116-.369-.36-.553-.731-.553-.373 0-.619.184-.739.553-.12.37-.18.938-.18 1.705zm.919-3.291c.811 0 1.38.286 1.707.857.326.571.49 1.383.49 2.434 0 1.052-.164 1.862-.49 2.43-.327.569-.896.853-1.707.853-.812 0-1.381-.284-1.708-.852-.326-.569-.49-1.379-.49-2.43 0-1.052.164-1.864.49-2.435.327-.571.896-.857 1.708-.857zm4.086 3.291c0 .733.06 1.293.18 1.681.12.389.367.583.739.583s.616-.194.732-.583c.115-.388.173-.948.173-1.68 0-.768-.058-1.336-.173-1.706-.116-.369-.36-.553-.732-.553s-.618.184-.738.553c-.12.37-.18.938-.18 1.705zm.919-3.291c.811 0 1.38.286 1.707.857.327.571.49 1.383.49 2.434 0 1.052-.163 1.862-.49 2.43-.326.569-.896.853-1.707.853-.812 0-1.38-.284-1.707-.852-.327-.569-.49-1.379-.49-2.43 0-1.052.163-1.864.49-2.435.326-.571.895-.857 1.707-.857zm5.238 3.05h.759V5.598h1.701c.409 0 .756.056 1.043.169.286.113.52.262.7.448.18.186.31.402.393.65a2.4 2.4 0 0 1 0 1.522 1.67 1.67 0 0 1-.394.631c-.18.183-.413.328-.7.435-.286.106-.633.16-1.042.16h-.512v.695h1.61v.942h-1.61V12h-1.19v-.75h-.758v-.942h.759v-.695h-.76v-.979zm2.341 0c.165 0 .319-.014.462-.041.143-.027.27-.078.38-.15a.726.726 0 0 0 .256-.307c.06-.131.091-.3.091-.508 0-.207-.03-.381-.091-.521a.811.811 0 0 0-.256-.334 1.007 1.007 0 0 0-.38-.174 2.024 2.024 0 0 0-.462-.05h-.393v2.085h.393z" fill="#FFF"/></g></svg>
